X: 18676
T: I'll Tell Me Ma
R: polka
M: 2/4
K: Dmajor
A|"D"Ad f2|gf f>g|"A7"fe e>f|"D"ed d2|
Ad f2|gf f>g|"A7"fe e>f|"D"ed d2|
a2 a>f|"G"g2 g>e|"D"f2 fd|"A7"ec BA|
"D"a2 a>f|"G"gg g2|"D"fd "A7"ec|"D"dd d2|

